icons/tomcat-light.svg

<svg width="256" height="256" viewBox="0 0 256 256" fill="none" xmlns="http://www.w3.org/2000/svg">
<path d="M196 0H60C26.8629 0 0 26.8629 0 60V196C0 229.137 26.8629 256 60 256H196C229.137 256 256 229.137 256 196V60C256 26.8629 229.137 0 196 0Z" fill="#F4F2ED"/>
<path d="M216.053 193.283L180.454 155.281L176.354 158C156.625 146.337 141.863 129.513 134.29 104.285C107.324 110.937 75.8838 128 55.6268 151.082C55.6305 151.087 55.6347 151.091 55.6381 151.096C35.5218 172.934 22.5581 193.483 19.1251 200.956L38.756 201.082C37.9978 192.243 40.2951 184.874 46.2819 176.679C73.4379 139.509 175.414 182.34 215.677 205.547L237.126 205.358C237.125 205.358 233.927 191.208 216.053 193.283Z" fill="#D1A41A"/>
<path d="M177.107 158C135.666 137.265 124.425 86.6793 134.585 51.9623C134.585 51.9623 142.299 55.5472 149.637 72.9057C166.437 68.0759 186.012 67.6223 203.071 72.3396C203.071 72.3396 205.14 58.7547 217.558 52.3396C219.437 60.3921 231.857 124.415 177.107 158Z" fill="#FFDC76"/>
<path d="M102.404 117.858L114.465 111.983L121.358 130.645L102.404 117.858ZM88.8777 124.684L96.3731 120.191L103.265 132.374L88.8777 124.684ZM74.3177 134.101L80.8649 129.781L84.1386 141.013L74.3177 134.101ZM190.281 165.204L185.973 160.885L179.943 170.388L190.281 165.204ZM198.897 175.572L195.451 172.116L185.112 179.028L198.897 175.572ZM134.774 99.8554L134.28 92.9758L146.342 99.1102L134.774 99.8554ZM138.589 109.91L136.185 104.792L144.619 108.268L138.589 109.91ZM217.851 102.652L219.573 97.4687L210.096 101.443L217.851 102.652ZM214.405 113.193L215.266 108.959L208.374 111.033L214.405 113.193ZM130.835 126.585H153.407V129.384H130.835V126.585ZM130.835 119.845H153.407V122.644H130.835V119.845ZM199.758 126.585H222.33V129.384H199.758V126.585ZM199.758 119.845H222.33V122.644H199.758V119.845Z" fill="black"/>
<path d="M221.937 77.0106L221.899 76.9536C221.884 72.5906 220.535 54.1498 218.061 49.0728C211.349 51.6461 199.126 60.0015 196.397 68.5208C183.177 66.5242 168.251 66.7653 155.116 69.0446C152.932 59.837 141.981 52.8668 133.707 48.9083C130.219 54.8547 128.667 68.614 129.067 78.4242C129.053 78.4344 129.036 78.4442 129.021 78.4555C130.557 119.502 150.515 145.06 176.614 160.549C203.482 145.06 222.672 114.855 221.904 76.9921C221.915 76.9985 221.927 77.0038 221.937 77.0106ZM176.985 155.228C135.958 134.576 128.197 82.3423 135.192 54.5476C137.137 65.3042 140.668 72.0159 148.326 75.2861C155.431 73.2313 163.688 71.9883 172.132 71.6012L178.22 85.7189L182.723 71.5691C190.515 71.8815 198.125 72.9419 204.791 74.797C211.827 69.6336 214.6 61.717 216.05 54.8325C217.908 62.8528 217.696 80.2181 217.704 80.2181L217.756 79.9332C218.446 114.095 201.208 141.289 176.985 155.229L176.985 155.228Z" fill="black"/>
<path d="M235.547 198.029C231.333 193.27 223.094 191.024 216.185 191.188C211.289 185.31 182.921 155.131 182.921 155.131L180.952 157.627L215.239 194.8L216.723 194.672C226.02 193.869 231.308 198.958 232.758 200.541C233.782 201.703 234.404 202.761 234.746 203.588H215.896C172.738 180.871 134.782 164.865 94.7802 161.337C94.8686 155.684 95.8632 149.29 97.7823 142.147L94.0803 141.132C92.1108 148.464 91.0782 155.072 90.9586 161.01C86.7284 160.726 82.49 160.584 78.2503 160.584C74.6342 160.584 71.3412 160.923 68.3561 161.514C64.4415 157.564 61.1064 153.803 58.2917 150.241C76.9709 130.62 107.847 112.808 134.629 106.268L133.758 102.482C104.93 109.495 73.3709 128.555 55.801 147.057C47.6471 135.956 44.3718 126.834 43.4337 119.95C42.2228 111.259 44.2842 103.256 49.404 96.8019C57.4217 86.734 68.7655 86.0453 80.5352 88.0245C80.3068 89.8917 80.5499 91.6732 81.29 92.7744C84.3866 97.3868 100.992 99.0136 110.973 94.5385C103.637 84.2125 88.796 79.1355 84.7023 81.1144C83.3375 81.7857 82.3139 83.0162 81.6058 84.4615C77.5542 83.731 73.5373 83.1879 70.6029 83.2053C60.2823 83.2815 52.35 86.9227 46.4652 94.3061C40.6653 101.577 38.3199 110.57 39.6843 120.38C40.9803 129.673 45.5353 139.569 53.1602 149.81L49.4845 153.872C30.8907 174.868 17.2437 197.501 17.2437 201.2V203.136H41.8078L41.3773 200.839C39.9869 193.439 42.759 184.145 48.4392 177.261C52.0046 172.924 57.9068 167.967 67.2035 165.644C75.4428 173.759 85.9678 182.338 97.6532 190.685H115.906V188.749C115.906 186.563 114.831 184.652 112.887 183.362C110.004 181.46 105.552 181.194 101.458 182.603C97.5599 178.223 95.3672 172.362 94.8984 165.134C134.559 168.68 172.429 184.84 215.161 207.386H238.701L238.701 205.853C238.326 201.325 235.547 198.028 235.547 198.028L235.547 198.029ZM45.3438 174.966C39.527 182.049 36.4734 191.403 37.1556 199.406H21.6324C24.7455 192.616 37.156 172.988 55.4082 153.109C57.9331 156.259 60.7391 159.434 63.8266 162.661C54.8704 165.389 48.9005 170.457 45.2328 174.966H45.3438ZM154.026 91.3759L154.025 91.3755L154.024 91.3774L154.026 91.3759Z" fill="black"/>
<path d="M206.885 91.6955V89.1721C197.563 89.1721 191.98 92.8698 189.309 100.749H169.149C170.559 94.4426 170.801 88.2566 168.724 84.6796C167.552 82.6668 165.708 81.5955 163.391 81.5955C155.086 81.5955 151.808 90.1317 151.674 90.4943L154.025 91.3751C154.118 91.063 156.868 84.1283 163.415 84.1283C164.845 84.1283 165.85 84.7072 166.576 85.96C168.277 88.8973 168.001 94.6687 166.588 100.734H155.129V103.257L166.027 103.267C164.863 107.406 163.235 111.492 161.4 114.758L160.807 115.804L175.194 124.875L167.113 130.215L168.5 132.323L177.546 126.353L187.282 132.728L188.617 130.595L179.571 124.988L193.786 115.743C193.781 115.737 193.779 115.732 193.775 115.727L193.726 115.698L193.743 115.696C190.762 111.291 189.823 107.524 191.062 103.257L202.81 103.273L202.835 100.767H191.893C193.962 95.9894 196.805 91.6955 206.885 91.6955ZM177.444 123.31L166.847 116.614L187.61 116.62L177.444 123.31ZM188.505 103.267C187.609 106.118 187.971 110.412 190.168 114.067H164.58C166.139 110.939 167.578 107.129 168.629 103.267H188.505Z" fill="black"/>
</svg>

<svg xmlns="http://www.w3.org/2000/svg" width="256" height="256" fill="none"><path fill="#F4F2ED" d="M196 0H60C26.863 0 0 26.863 0 60v136c0 33.137 26.863 60 60 60h136c33.137 0 60-26.863 60-60V60c0-33.137-26.863-60-60-60"/><path fill="#D1A41A" d="m216.053 193.283-35.599-38.002-4.1 2.719c-19.729-11.663-34.491-28.487-42.064-53.715-26.966 6.652-58.406 23.715-78.663 46.797l.011.014c-20.116 21.838-33.08 42.387-36.513 49.86l19.631.126c-.758-8.839 1.54-16.208 7.526-24.403 27.156-37.17 129.132 5.661 169.395 28.868l21.449-.189c-.001 0-3.199-14.15-21.073-12.075"/><path fill="#FFDC76" d="M177.107 158c-41.441-20.735-52.682-71.32-42.522-106.038 0 0 7.714 3.585 15.052 20.944 16.8-4.83 36.375-5.284 53.434-.566 0 0 2.069-13.585 14.487-20 1.879 8.052 14.299 72.075-40.451 105.66"/><path fill="#000" d="m102.404 117.858 12.061-5.875 6.893 18.662zm-13.526 6.826 7.495-4.493 6.892 12.183zm-14.56 9.417 6.547-4.32 3.274 11.232zm115.963 31.103-4.308-4.319-6.03 9.503zm8.616 10.368-3.446-3.456-10.339 6.912zm-64.123-75.717-.494-6.88 12.062 6.135zm3.815 10.055-2.404-5.118 8.434 3.476zm79.262-7.258 1.722-5.183-9.477 3.974zm-3.446 10.541.861-4.234-6.892 2.074zm-83.57 13.392h22.572v2.799h-22.572zm0-6.74h22.572v2.799h-22.572zm68.923 6.74h22.572v2.799h-22.572zm0-6.74h22.572v2.799h-22.572z"/><path fill="#000" d="m221.937 77.01-.038-.056c-.015-4.363-1.364-22.804-3.838-27.881-6.712 2.573-18.935 10.929-21.664 19.448-13.22-1.997-28.146-1.756-41.281.524-2.184-9.208-13.135-16.178-21.409-20.137-3.488 5.947-5.04 19.706-4.64 29.516l-.046.031c1.536 41.047 21.494 66.605 47.593 82.094 26.868-15.489 46.058-45.694 45.29-83.557l.033.019m-44.952 78.218c-41.027-20.652-48.788-72.886-41.793-100.68 1.945 10.756 5.476 17.468 13.134 20.738 7.105-2.055 15.362-3.298 23.806-3.685l6.088 14.118 4.503-14.15c7.792.313 15.402 1.373 22.068 3.228 7.036-5.163 9.809-13.08 11.259-19.964 1.858 8.02 1.646 25.385 1.654 25.385l.052-.285c.69 34.162-16.548 61.356-40.771 75.296z"/><path fill="#000" d="M235.547 198.029c-4.214-4.759-12.453-7.005-19.362-6.841-4.896-5.878-33.264-36.057-33.264-36.057l-1.969 2.496 34.287 37.173 1.484-.128c9.297-.803 14.585 4.286 16.035 5.869 1.024 1.162 1.646 2.22 1.988 3.047h-18.85c-43.158-22.717-81.114-38.723-121.116-42.251.089-5.653 1.083-12.047 3.002-19.19l-3.702-1.015c-1.97 7.332-3.002 13.94-3.121 19.878q-6.347-.426-12.709-.426c-3.616 0-6.909.339-9.894.93-3.914-3.95-7.25-7.711-10.064-11.273 18.679-19.621 49.555-37.433 76.337-43.973l-.871-3.786c-28.828 7.013-60.387 26.073-77.957 44.575-8.154-11.101-11.43-20.223-12.367-27.107-1.211-8.691.85-16.694 5.97-23.148 8.018-10.068 19.362-10.757 31.131-8.778-.228 1.868.015 3.65.755 4.75 3.097 4.613 19.702 6.24 29.683 1.764-7.336-10.325-22.177-15.403-26.27-13.424-1.365.672-2.39 1.902-3.097 3.347-4.052-.73-8.069-1.273-11.003-1.256-10.32.076-18.253 3.718-24.138 11.101-5.8 7.271-8.145 16.264-6.78 26.074 1.295 9.293 5.85 19.189 13.475 29.43l-3.675 4.062C30.89 174.868 17.243 197.501 17.243 201.2v1.936h24.564l-.43-2.297c-1.391-7.4 1.381-16.694 7.061-23.578 3.566-4.337 9.468-9.294 18.765-11.617 8.239 8.115 18.764 16.694 30.45 25.041h18.252v-1.936c0-2.186-1.075-4.097-3.019-5.387-2.883-1.902-7.335-2.168-11.429-.759-3.898-4.38-6.09-10.241-6.56-17.469 39.661 3.546 77.531 19.706 120.263 42.252h23.54v-1.533c-.375-4.528-3.154-7.825-3.154-7.825zM45.344 174.966c-5.817 7.083-8.87 16.437-8.188 24.44H21.632c3.113-6.79 15.524-26.418 33.776-46.297 2.525 3.15 5.331 6.325 8.419 9.552-8.957 2.728-14.926 7.796-18.594 12.305zm108.682-83.59h-.001l-.001.001z"/><path fill="#000" d="M206.885 91.696v-2.524c-9.322 0-14.905 3.698-17.576 11.577h-20.16c1.41-6.306 1.652-12.492-.425-16.07-1.172-2.012-3.016-3.084-5.333-3.084-8.305 0-11.583 8.537-11.717 8.9l2.351.88c.093-.312 2.843-7.247 9.39-7.247 1.43 0 2.435.58 3.161 1.832 1.701 2.937 1.425 8.709.012 14.774h-11.459v2.523l10.898.01c-1.164 4.139-2.792 8.225-4.627 11.491l-.593 1.046 14.387 9.071-8.081 5.34 1.387 2.108 9.046-5.97 9.736 6.375 1.335-2.133-9.046-5.607 14.215-9.245-.011-.016-.049-.029.017-.002c-2.981-4.405-3.92-8.172-2.681-12.439l11.748.016.025-2.506h-10.942c2.069-4.778 4.912-9.071 14.992-9.071m-29.441 31.614-10.597-6.696 20.763.006zm11.061-20.043c-.896 2.851-.534 7.145 1.663 10.8H164.58c1.559-3.128 2.998-6.938 4.049-10.8z"/></svg>
